Sources/FrostedUI/Resources/Icons.xcassets/happyFacePlus24.imageset/happy-face-plus-24.svg

<svg width="24" height="24" viewBox="0 0 24 24" fill="none" xmlns="http://www.w3.org/2000/svg" data-fui-icon="true">
  <path
    d="M12 0C13.1051 2.43479e-06 14.1849 0.165159 15.2139 0.470703C15.6107 0.588711 15.8366 1.00637 15.7188 1.40332C15.6008 1.80039 15.1832 2.02707 14.7861 1.90918C13.8902 1.64317 12.9547 1.5 12 1.5C6.40813 1.50001 1.5 6.40813 1.5 12C1.5 17.5919 6.40813 22.5 12 22.5C17.5919 22.5 22.5 17.5919 22.5 12C22.5 11.0453 22.3568 10.1098 22.0908 9.21387C21.9729 8.81679 22.1996 8.39916 22.5967 8.28125C22.9936 8.16346 23.4113 8.38926 23.5293 8.78613C23.8348 9.81513 24 10.8949 24 12C24 18.4203 18.4203 24 12 24C5.5797 24 3.31525e-06 18.4203 0 12C3.52246e-06 5.5797 5.5797 1.4366e-05 12 0ZM7.54004 15.3291C7.88723 15.1558 8.30436 15.2768 8.50781 15.5977L8.54297 15.6592L8.54395 15.6602L8.54492 15.6621V15.665L8.54688 15.667C8.55149 15.6755 8.56026 15.6911 8.57324 15.7129C8.59964 15.7572 8.64408 15.8263 8.70605 15.9121C8.83051 16.0844 9.02567 16.3199 9.30078 16.5557C9.84306 17.0204 10.7061 17.5 12 17.5C13.2939 17.5 14.1569 17.0204 14.6992 16.5557C14.9743 16.3199 15.1695 16.0844 15.2939 15.9121C15.3559 15.8263 15.4004 15.7572 15.4268 15.7129C15.4397 15.6911 15.4485 15.6755 15.4531 15.667L15.4541 15.665V15.6641L15.4561 15.6602L15.457 15.6592L15.4922 15.5977C15.6956 15.2768 16.1128 15.1558 16.46 15.3291C16.8303 15.5143 16.9808 15.9646 16.7959 16.335L16.2305 16.0527C16.7958 16.3354 16.7951 16.3366 16.7949 16.3369L16.792 16.3428C16.7905 16.3457 16.7892 16.3495 16.7871 16.3535C16.7829 16.3616 16.7771 16.3716 16.7705 16.3838C16.7572 16.4083 16.7383 16.4411 16.7148 16.4805C16.668 16.5591 16.601 16.6661 16.5107 16.791C16.3305 17.0405 16.0568 17.3677 15.6758 17.6943C14.9056 18.3545 13.706 19 12 19C10.294 19 9.09445 18.3545 8.32422 17.6943C7.94319 17.3677 7.66947 17.0405 7.48926 16.791C7.39903 16.6661 7.33198 16.5591 7.28516 16.4805C7.26171 16.4411 7.24283 16.4083 7.22949 16.3838C7.22287 16.3716 7.21711 16.3616 7.21289 16.3535C7.2108 16.3495 7.20952 16.3457 7.20801 16.3428L7.20508 16.3369L7.2041 16.3359C7.2043 16.3354 7.21879 16.3282 7.76953 16.0527L7.2041 16.335C7.01916 15.9646 7.16969 15.5143 7.54004 15.3291ZM7.2002 10.2998C7.86285 10.2999 8.40039 10.8373 8.40039 11.5C8.40039 12.1627 7.86285 12.7001 7.2002 12.7002C6.53745 12.7002 6 12.1627 6 11.5C6 10.8373 6.53745 10.2998 7.2002 10.2998ZM16.7998 10.2998C17.4625 10.2998 18 10.8373 18 11.5C18 12.1627 17.4625 12.7002 16.7998 12.7002C16.1372 12.7001 15.5996 12.1627 15.5996 11.5C15.5996 10.8373 16.1372 10.2999 16.7998 10.2998ZM20.25 0C20.6642 0 21 0.335786 21 0.75V3H23.25C23.6642 3 24 3.33579 24 3.75C24 4.16421 23.6642 4.5 23.25 4.5H21V6.75C21 7.16421 20.6642 7.5 20.25 7.5C19.8358 7.5 19.5 7.16421 19.5 6.75V4.5H17.25C16.8358 4.5 16.5 4.16421 16.5 3.75C16.5 3.33579 16.8358 3 17.25 3H19.5V0.75C19.5 0.335786 19.8358 0 20.25 0Z"
    fill="currentColor"
  />
</svg>

<svg xmlns="http://www.w3.org/2000/svg" width="24" height="24" fill="none" data-fui-icon="true" viewBox="0 0 24 24"><path fill="currentColor" d="M12 0c1.105 0 2.185.165 3.214.47a.75.75 0 0 1-.428 1.44A9.8 9.8 0 0 0 12 1.5C6.408 1.5 1.5 6.408 1.5 12S6.408 22.5 12 22.5 22.5 17.592 22.5 12c0-.955-.143-1.89-.41-2.786a.75.75 0 0 1 1.44-.428c.305 1.03.47 2.109.47 3.214 0 6.42-5.58 12-12 12S0 18.42 0 12 5.58 0 12 0M7.54 15.33a.75.75 0 0 1 .968.268l.035.061.001.001v.005l.003.002.026.046q.04.068.133.2c.125.171.32.407.595.643.542.464 1.405.944 2.699.944s2.157-.48 2.7-.944a3.7 3.7 0 0 0 .727-.843l.026-.046.001-.002.002-.005h.001l.035-.062a.75.75 0 0 1 1.304.737l-.566-.282c.566.282.565.284.565.284l-.003.006-.005.01-.017.03-.055.098a4 4 0 0 1-.204.31c-.18.25-.454.577-.835.903-.77.66-1.97 1.306-3.676 1.306s-2.906-.645-3.676-1.306a5.3 5.3 0 0 1-.835-.903 4 4 0 0 1-.26-.407l-.016-.03-.005-.011-.003-.006v-.001l.565-.283-.566.282a.75.75 0 0 1 .336-1.006M7.2 10.3a1.2 1.2 0 1 1 0 2.4 1.2 1.2 0 0 1 0-2.4m9.6 0a1.2 1.2 0 1 1 0 2.4 1.2 1.2 0 0 1 0-2.4M20.25 0a.75.75 0 0 1 .75.75V3h2.25a.75.75 0 0 1 0 1.5H21v2.25a.75.75 0 0 1-1.5 0V4.5h-2.25a.75.75 0 0 1 0-1.5h2.25V.75a.75.75 0 0 1 .75-.75"/></svg>
